X:55
T:Eleanor's Fancy
M:C|
C:© Paul Gitlitz 2006
B:Anna's Smile
N:Tune for Mom with a nod to the Beatles "Eleanor Rigby".
K:Am
"Am" A2ceg4|"D"g^fag- "Em"gfe2|"D"^f2ga "Em"g2fe|"D"^f2ed "C"e2dc|!
"Am"A2ce "Em" g4|"D"g^fag- "Em"gfe2|"C"edcB- "G"B2cd|1"Em"B3cB2 "Am"A2:|2"Em"BcB2 "Am"A4|!
|:"D"a8|"Em"agba- "Am"a2ge|"D"a8|"G"g^f a2"Em"e4|!
"D"a8|"Em"agba- "Am"a2ge|"C"edcB- "G"B2cd|"Em"B3cB2 "Am"A2:|]
